Sources/FrostedUI/Resources/Icons.xcassets/sticker20.imageset/sticker-20.svg

<svg width="20" height="20" viewBox="0 0 20 20" fill="none" xmlns="http://www.w3.org/2000/svg" data-fui-icon="true">
  <g clip-path="url(#clip0_6194_104)">
    <path
      d="M11.6845 0.488273C14.7519 -0.219878 17.8127 1.69277 18.5209 4.76011L18.9257 6.51378L19.0339 7.04306C20.0081 12.5121 16.5307 17.8429 11.0568 19.1067L9.30317 19.5115L9.015 19.57C6.0463 20.0985 3.15279 18.211 2.46681 15.2397L0.982216 8.80923C0.296229 5.83789 2.06948 2.87301 4.9694 2.0466L5.25405 1.97286L11.6845 0.488273ZM5.59148 3.43442C3.33133 3.95621 1.92198 6.21166 2.44377 8.4718L3.92836 14.9023C4.45016 17.1624 6.7056 18.5718 8.96574 18.05L10.7194 17.6451C11.0489 17.569 11.369 17.4733 11.6808 17.364L10.9065 14.0099C10.3474 11.5883 11.8573 9.17198 14.2788 8.61291L17.634 7.83832C17.5955 7.51018 17.5402 7.18062 17.4642 6.85121L17.0593 5.09753C16.5375 2.83739 14.2821 1.42803 12.0219 1.94983L5.59148 3.43442ZM14.6163 10.0745C13.0019 10.4472 11.9953 12.058 12.368 13.6724L13.0756 16.7373C15.7675 15.239 17.5145 12.4432 17.6812 9.36688L14.6163 10.0745Z"
      fill="currentColor"
    />
  </g>
  <defs>
    <clipPath id="clip0_6194_104"><path fill="currentColor" d="M0 0H20V20H0z" /></clipPath>
  </defs>
</svg>

<svg xmlns="http://www.w3.org/2000/svg" width="20" height="20" fill="none" data-fui-icon="true" viewBox="0 0 20 20"><g clip-path="url(#a)"><path fill="currentColor" d="M11.685.488A5.7 5.7 0 0 1 18.52 4.76l.405 1.754.108.53c.974 5.468-2.503 10.799-7.977 12.063l-1.754.405-.288.058a5.7 5.7 0 0 1-6.548-4.33L.982 8.81A5.7 5.7 0 0 1 4.97 2.046l.285-.074zM5.59 3.434a4.2 4.2 0 0 0-3.147 5.038l1.484 6.43a4.2 4.2 0 0 0 5.038 3.148l1.753-.405q.495-.116.962-.281l-.774-3.354a4.5 4.5 0 0 1 3.372-5.397l3.355-.775a9 9 0 0 0-.17-.987l-.405-1.753a4.2 4.2 0 0 0-5.037-3.148zm9.025 6.64a3 3 0 0 0-2.248 3.598l.708 3.065a9.01 9.01 0 0 0 4.605-7.37z"/></g><defs><clipPath id="a"><path fill="currentColor" d="M0 0h20v20H0z"/></clipPath></defs></svg>
